X:1
T:James Gibb editions
T:Again the morn of gladness - Barnby
%%score [ ( 1 2 ) ( 3 4 ) ]
L:1/8
Q:1/4=100
M:4/4
K:D
V:1 treble nm="Midi_74"
V:2 treble 
V:3 bass nm="Midi_74"
V:4 bass 
V:1
"^Again the morn of gladness""^Joseph Barnby\n(1838-96)""^John Ellerton\n(1826-93)""^Morn of Gladness (76. 76. D. 66. 84)" A2 | %1
 d3 d c2"^1" A2 | d4 A2 || A2 | B3 B A2 G2 | F6 || F2 | B3 B ^A2 F2 | B4 F2 || F2 | ^G2 d2 c2 B2 | %11
 A6 ||[M:4/4] c2 | e2 d2 c2 B2 | A4 A2 || c2 |"^1" e2 d2 c2"^1" B2 | A4 || G4 | F2 ^A2 c2 F2 | %20
 (d2 c2) B2 || !courtesy!=A2 | A2"^1" ^GF G2 B2 | A8 ||"^Refrain" d3 d c2"^1" A2 | d4 d2 || A2 | %27
 d3 d c2 A2 | d6 || A2 | =c3 c B2 A2 | B2 c2 d2 || e2 | (A2 B2) c4 | d6 || d4 d4 |] %36
V:2
 A2 | F3 F G2 E2 | D4 D2 || D2 | D3 D F2 E2 | D6 || F2 | D3 D E2 C2 | F4 D2 || D2 | D2 F2 E2 D2 | %11
 C6 ||[M:4/4] A2 | B2 A2 A2 ^G2 | A4 A2 || E2 | E2 A,2 E2 E2 | E4 || E4 | E2 E2 C2 F2 | F4 F2 || %21
 F2 | E2 E2 E2 D2 | C8 || D3 D E2 C2 | D4 D2 || A2 | F3 F G2 A2 | A6 || A2 | F3 F G2 D2 | %31
 D2 F2 F2 || E2 | F4 G4 | F6 || G4 F4 |] %36
V:3
 A,2 | A,3 A, A,2 A,2 | A,4 D2 || D2 | D2 x D C2 A,2 | A,6 || F,2 | F,3 F, F,2 ^A,2 | B,4 B,2 || %9
 B,2 | B,2 A,2 ^G,2 G,2 | A,6 ||[M:4/4] E2 | E2 A,2 E2 E2 | (E2 D2) C2 || A,2 | B,2 A,2 A,2 ^G,2 | %17
 A,4 || B,4 | C2 F,2 F,2 ^A,2 | (B,2 ^A,2) B,2 || D2 | C2 B,A, B,2!<(! ^G,2 | A,8!<)! || %24
"^1. Again the morn of gladness,\nThe morn of light is here,\nAnd earth itself looks fairer,\nAnd heaven itself more near.\nThe bells, like angel voices,\nSpeak peace to every breast;\nAnd all the land lies quiet,\nTo keep the day of rest.\n\nRefrain:\nGlory be to Jesus!\nLet all his children say;\nHe rose again, He rose again,\nOn this glad day." A,3 A, A,2 A,2 | %25
 A,4 A,2 || A,2 | A,3 A, A,2 C2 | D6 || A,2 | %30
"^2. Again, O loving Saviour,\nThe children of Thy grace\nPrepare themselves to seek Thee,\nWithin Thy chosen place.\nOur songs shall rise to greet Thee,\nIf Thou our hearts wilt raise;\nIf Thou our lips wilt open,\nOur moouth shall show Thy praise.\nRefrain:\n\n3. The Church on earth rejoices\nTo join with those today;\nIn every tongue and nation\nShe calls her sons to pray;\nAcross the northern snowfields,\nBeneath the Indian palms,\nShe makes the same pure offering\nAnd sings the same sweet psalms.\nRefrain:" A,3 A, B,2 =C2 | %31
 B,2 ^A,2 B,2 || B,2 | D4 E4 | D6 || B,4 A,4 |] %36
V:4
 A,2 | D,3 D, E,2 G,2 | F,4 F,2 || F,2 | G,3 G, A,2 A,2 | D,6 || F,2 | B,,3 B,, C,2 E,2 | %8
 D,4 B,,2 || B,,2 | E,2 E,2 E,2 E,2 | A,6 ||[M:4/4] A,2 | ^G,2 F,2 E,2 D,2 | (C,2 B,,2) A,,2 || %15
 A,2 | ^G,2 F,2 E,2 D,2 | C,4 || B,,4 | ^A,,2 C,2 A,,2 F,,2 | (B,,2 C,2) D,2 || B,,2 | %22
 E,2 E,2 E,2 E,2 | A,4 G,4 || F,2 x F, G,2 G,2 | F,4 F,2 || A,2 | D,3 D, E,2 G,2 | F,6 || A,2 | %30
 D,3 D, D,2 F,2 | G,2 F,2 B,2 || G,2 | A,4 A,4 | D,6 || G,,4 D,4 |] %36

